X: 41023
T: Trip To Jasper
R: reel
M: 4/4
K: Gminor
K:Eb
GF|{D}E2B,E GECE|DCDE CEB,E|GF{D}E2 B,EA,E|G,EDE ED (3EEE|
GF|{D}E2B,E GECE|DCDE CEB,E|GF{D}E2 B,EA,E|G,EDE ED (3EEE|
|:B,DEF GFED|{D}EB,A,E {D}EB,A,E|B,DEF GFB,E|1 CEB,E A,EG,D:|2 DEED (3EEE GF]|

